X:36
T:Bogey. ThoH.036
Q:3/8=100
M:6/8
L:1/8
B:Thompson's Compleat Collection of 120 Favourite Hornpipes.
Z:Village Music Project, Simon Wilson 2016
O:England.
K:F
|:((3c/d/e/)|f3cAF|d2dd3|cAF GEC|{DE}F2FF2((3c/d/e/)|
f3edc|(f/g/a)c{c}=B2G|(A/=B/c)E DcB|c3C2:|
|:(A/B/)|c3-cBA|D2c- cBA|B3-BAG|C2B- BAG|
B,2d- dcB|A,2c- cBA|GAF CFE|F3-F2:|

